X: 1
T: Art Doyle's Jig
C: Charles DeMaris
S: Daniel J. Curtin <curtin:nku.EDU>
%In memory of Dr. Art Doyle, a mainstay of Irish music in Cincinnati, OH, USA
Q: 250
M: 6/8
K: G
|: BAG EDE | GFG EDE | BAG EDE | GFG  G2A \
|  BAG EDE | GFG EDE | BAG EDE | GFG  G3 :|
|: ged BGA | BAB d2e | ged BGA | B^cB A2d \
|  ged BGA | BAB d2e | ged BGA | B2>A2 G2 :|
